X:1
T:Hector the Hero
C:Traditional
M:3/4
L:1/4
Q:1/4=76
K:G
G/2A/2|B3/2A/2G|e2d/2B/2|d2-d/2e/2|d2B/2A/2|B2A/2G/2|e2d/2B/2|A2-A/2B/2|A2B/2d/2|B3/2A/2G|e2d/2B/2|d2G|b2e|d2B/2G/2|A2G|G3-|G3|]
